src/22x22/places/folder-gruvbox-original-aqua-gnome.svg

<?xml version="1.0" encoding="UTF-8"?>
<svg width="22" height="22" version="1" xmlns="http://www.w3.org/2000/svg">
 <rect x="1" y="8.5" width="20" height="12" rx="1" ry="1" opacity=".2"/>
 <path d="m1 16c0 0.554 0.446 1 1 1h18c0.554 0 1-0.446 1-1v-11c0-0.554-0.446-1-1-1h-9c-1.5 0-2-2-3.5-2h-5.5c-0.554 0-1 0.446-1 1" fill="#427b58"/>
 <rect x="1" y="7.5" width="20" height="12" rx="1" ry="1" opacity=".2"/>
 <rect x="3" y="6" width="16" height="8" rx="1" ry="1" fill="#D5D7B3"/>
 <rect x="1" y="8" width="20" height="12" rx="1" ry="1" fill="#8ec07c"/>
 <path d="m2 2c-0.554 0-1 0.446-1 1v0.5c0-0.554 0.446-1 1-1h5.5c1.5 0 2 2 3.5 2h9c0.554 0 1 0.446 1 1v-0.5c0-0.554-0.446-1-1-1h-9c-1.5 0-2-2-3.5-2z" fill="#D5D7B3" opacity=".1"/>
 <path d="m14.084 9c-2.221 0-2.638 3-1.389 3 1.25 0 3.61-3 1.389-3zm-3.471 0.5c-0.023 0-0.048 0.0025-0.074 0.0059-0.8475 0.136-0.5485 1.9601-0.098 1.9941 0.437 0.033 0.913-1.9931 0.174-2zm-1.5442 0.5c-0.0604-0.0047-0.1268 9e-3 -0.2012 0.047-0.7932 0.401-0.1198 2.059 0.3242 1.947 0.4031-0.101 0.4598-1.948-0.123-1.994zm-1.1055 1c-0.0707-3e-3 -0.1468 0.029-0.2285 0.105-0.6518 0.615 0.2199 2.102 0.6035 1.872 0.3354-0.202 0.1206-1.954-0.375-1.977zm4.0427 1c-1.556-0.029-3.6086 0.829-3.9587 2.551-0.3787 1.863 1.5626 4.449 3.5857 4.449 0.995 0 2.142-1.186 2.357-2.438 0.164-0.953-2.03-0.572-1.955 0.059 0.09 0.756-0.505 1.331-1.088 0.844-1.8558-1.553 3.175-2.328 2.85-4.449-0.102-0.661-0.858-0.997-1.791-1.014z" fill="#313D38"/>
</svg>

<svg xmlns="http://www.w3.org/2000/svg" width="22" height="22" version="1">
 <rect style="opacity:0.2" width="20" height="12" x="1" y="8.5" rx="1" ry="1"/>
 <path style="fill:#427b58" d="M 1,16 C 1,16.554 1.446,17 2,17 H 20 C 20.554,17 21,16.554 21,16 V 5 C 21,4.446 20.554,4 20,4 H 11 C 9.5,4 9,2 7.5,2 H 2 C 1.446,2 1,2.446 1,3"/>
 <rect style="opacity:0.2" width="20" height="12" x="1" y="7.5" rx="1" ry="1"/>
 <rect style="fill:#D5D7B3" width="16" height="8" x="3" y="6" rx="1" ry="1"/>
 <rect style="fill:#8ec07c" width="20" height="12" x="1" y="8" rx="1" ry="1"/>
 <path style="opacity:0.1;fill:#D5D7B3" d="M 2,2 C 1.446,2 1,2.446 1,3 V 3.5 C 1,2.946 1.446,2.5 2,2.5 H 7.5 C 9,2.5 9.5,4.5 11,4.5 H 20 C 20.554,4.5 21,4.946 21,5.5 V 5 C 21,4.446 20.554,4 20,4 H 11 C 9.5,4 9,2 7.5,2 Z"/>
 <path style="fill:#313D38" d="M 14.084,9 C 11.863,9 11.446,12 12.695,12 13.945,12 16.305,9 14.084,9 Z M 10.613,9.5 C 10.59,9.5 10.565,9.5025 10.539,9.5059 9.6915,9.6419 9.9905,11.466 10.441,11.5 10.878,11.533 11.354,9.5069 10.615,9.5 Z M 9.0688,10 C 9.0084,9.9953 8.942,10.009 8.8676,10.047 8.0744,10.448 8.7478,12.106 9.1918,11.994 9.5949,11.893 9.6516,10.046 9.0688,10 Z M 7.9633,11 C 7.8926,10.997 7.8165,11.029 7.7348,11.105 7.083,11.72 7.9547,13.207 8.3383,12.977 8.6737,12.775 8.4589,11.023 7.9633,11 Z M 12.006,12 C 10.45,11.971 8.3974,12.829 8.0473,14.551 7.6686,16.414 9.6099,19 11.633,19 12.628,19 13.775,17.814 13.99,16.562 14.154,15.609 11.96,15.99 12.035,16.621 12.125,17.377 11.53,17.952 10.947,17.465 9.0912,15.912 14.122,15.137 13.797,13.016 13.695,12.355 12.939,12.019 12.006,12.002 Z"/>
</svg>
